Suru++-Ubuntu/apps/symbolic/koala-symbolic.svg

<svg width="16" height="16" version="1.1" xmlns="http://www.w3.org/2000/svg">
 <path d="m12.745941 3.5959241a3.2540394 3.0695998 0 0 0-2.052412 0.6902551c-0.8053232-0.2898897-1.7225049-0.4544882-2.6966176-0.4544882-0.9806744 0-1.9037444 0.1670552-2.7129654 0.4603465a3.2540394 3.0695998 0 0 0-2.029887-0.6710929 3.2540394 3.0695998 0 0 0-3.254059 3.0695432 3.2540394 3.0695998 0 0 0 2.499901 2.9824252c0.19923 0.609373 0.520205 1.17959 1.020783 1.558224 1.055595 0.798387 2.889654 0.768642 4.5024233 0.768642 1.9613366 0 3.8165177 0.04271 4.8546447-1.058797 0.283691-0.30085 0.491274-0.780888 0.635361-1.2961131a3.2540394 3.0695998 0 0 0 2.486887-2.9792504 3.2540394 3.0695998 0 0 0-3.254059-3.0696944zm-7.703259 3.2331968a1.4359931 1.5569188 0 0 1 0.143323 0.00756 1.4359931 1.5569188 0 0 1 1.139913 0.8514141 1.4359931 1.5569188 0 0 1 1e-3 2e-3 1.4359931 1.5569188 0 0 1 0.151835 0.695622 1.4359931 1.5569188 0 0 1-1.43607 1.5570141 1.4359931 1.5569188 0 0 1-0.860442-0.3129448 1.4359931 1.5569188 0 0 1-1.66e-4 0 1.4359931 1.5569188 0 0 1-0.109285-0.098646 1.4359931 1.5569188 0 0 1-0.0022-0.00215 1.4359931 1.5569188 0 0 1-0.09727-0.1069607 1.4359931 1.5569188 0 0 1-0.0052-0.00756 1.4359931 1.5569188 0 0 1-0.08292-0.1114961 1.4359931 1.5569188 0 0 1-0.0095-0.015118 1.4359931 1.5569188 0 0 1-0.06741-0.111874 1.4359931 1.5569188 0 0 1-0.01251-0.022677 1.4359931 1.5569188 0 0 1-0.05256-0.1096063 1.4359931 1.5569188 0 0 1-0.01467-0.034016 1.4359931 1.5569188 0 0 1-0.03787-0.1035591 1.4359931 1.5569188 0 0 1-0.01436-0.046488 1.4359931 1.5569188 0 0 1-0.02653-0.1005355 1.4359931 1.5569188 0 0 1-0.011-0.053291 1.4359931 1.5569188 0 0 1-0.01568-0.095622 1.4359931 1.5569188 0 0 1-0.0073-0.065008 1.4359931 1.5569188 0 0 1-0.0068-0.094866 1.4359931 1.5569188 0 0 1-0.0022-0.063874 1.4359931 1.5569188 0 0 1 1.435903-1.5569008zm5.935657 0.078992a1.4359931 1.5569188 0 0 1 0.559113 0.1228347 1.4359931 1.5569188 0 0 1 1.66e-4 0 1.4359931 1.5569188 0 0 1 0.876627 1.4339149 1.4359931 1.5569188 0 0 1-0.486032 1.164926 1.4359931 1.5569188 0 0 1-0.949874 0.3919365 1.4359931 1.5569188 0 0 1-1.4360695-1.5568625 1.4359931 1.5569188 0 0 1 0.1628598-0.7171275 1.4359931 1.5569188 0 0 1 0.246085-0.3688819 1.4359931 1.5569188 0 0 1 0.00831-0.011339 1.4359931 1.5569188 0 0 1 0.093581-0.092976 1.4359931 1.5569188 0 0 1 0.01323-0.011339 1.4359931 1.5569188 0 0 1 0.09558-0.07748 1.4359931 1.5569188 0 0 1 0.02116-0.015118 1.4359931 1.5569188 0 0 1 0.09778-0.063874 1.4359931 1.5569188 0 0 1 0.02646-0.015118 1.4359931 1.5569188 0 0 1 0.09645-0.049512 1.4359931 1.5569188 0 0 1 0.03515-0.018898 1.4359931 1.5569188 0 0 1 0.0926-0.034016 1.4359931 1.5569188 0 0 1 0.04471-0.015118 1.4359931 1.5569188 0 0 1 0.08893-0.022677 1.4359931 1.5569188 0 0 1 0.05155-0.011339 1.4359931 1.5569188 0 0 1 0.08678-0.015118 1.4359931 1.5569188 0 0 1 0.05673-0.00756 1.4359931 1.5569188 0 0 1 0.1183-0.00756zm-2.3126932 2.5452851a0.28983341 0.51379562 0 0 1 0.2898142 0.5137134 0.28983341 0.51379562 0 0 1-0.00217 0.0578266c-0.030614 0.05291-0.056391 0.113386-0.091918 0.159118-0.07268 0.09335-0.1557544 0.171969-0.2506205 0.234709-0.016252 0.01134-0.037795 0.01512-0.054387 0.02268a0.28983341 0.51379562 0 0 1-0.180548-0.4753541 0.28983341 0.51379562 0 0 1 0.2898141-0.5137133zm-1.3414678 0.018898a0.28983341 0.51379562 0 0 1 0.2898143 0.5139023 0.28983341 0.51379562 0 0 1-0.2305893 0.5027147c-0.05265-0.026457-0.110853-0.042331-0.15685-0.075591-0.05579-0.040441-0.09967-0.097512-0.146343-0.150425a0.28983341 0.51379562 0 0 1-0.04588-0.2762833 0.28983341 0.51379562 0 0 1 0.289814-0.5139024zm0.6697324 1.225852c0.079975-0.0017 0.1618394-0.0012 0.2164158 0.01512 0.044107 0.01134 0.068901 0.0189 0.089424 0.03402 0.020409 0.01512 0.030614 0.02646 0.056239 0.04724 0.033638 0.02646 0.064176 0.06539 0.095773 0.103937 0.031748 0.03855 0.063874 0.0771 0.090935 0.100913 0.03515 0.03024 0.06085 0.0635 0.085115 0.0858 0.024189 0.02268 0.042935 0.03402 0.071924 0.03402 0.092296 0 0.1735181 0.02268 0.2634708-0.0076 0.038022-0.01134 0.1169764-0.06728 0.1791874-0.117165 0.062211-0.05027 0.1116095-0.09562 0.1116095-0.09562a0.04271766 0.04271766 0 1 1 0.058053 0.06236s-0.051401 0.04762-0.1161448 0.09978c-0.064743 0.05216-0.1395402 0.109228-0.2048882 0.131905-0.1167874 0.04006-0.2169449 0.01134-0.291326 0.01134-0.054387 0-0.097474-0.02646-0.1292976-0.0548-0.031748-0.03024-0.057071-0.06085-0.084586-0.08504-0.035528-0.03024-0.068787-0.07257-0.1002708-0.11074-0.03137-0.03855-0.061644-0.07408-0.083074-0.09146-0.02948-0.02268-0.042028-0.0378-0.051213-0.04347-0.00907-0.0076-0.021921-0.01134-0.06308-0.02268-0.030614-0.0076-0.1152378-0.01134-0.1922267-0.01134-0.076989 0.0016-0.1552252 0.0076-0.1678488 0.01134-0.054312 0.01134-0.035528-0.0076-0.1152756 0.04082-0.029858 0.0189-0.091389 0.08088-0.150841 0.144378-0.059452 0.0635-0.1173544 0.128127-0.1740094 0.161386-0.09766 0.05745-0.163578 0.05405-0.1872 0.0601-0.01928 0.0038-0.03666 0.0038-0.05991 0.0033-0.02343-0.0011-0.05084-0.0038-0.08009-0.0076-0.05851-0.01134-0.123891-0.02646-0.177182-0.05292-0.0578-0.03024-0.116724-0.0892-0.166519-0.142489-0.04979-0.05329-0.08776-0.100158-0.08776-0.100158a0.04271766 0.04271766 0 1 1 0.06624-0.05367s0.03651 0.0446 0.08392 0.09524c0.04741 0.05065 0.108276 0.106583 0.143157 0.124725 0.03938 0.0189 0.09944 0.0378 0.152013 0.04535 0.02646 0.0038 0.05049 0.0076 0.06992 0.0076 0.01928 9.83e-4 0.03591-6.42e-4 0.03553-4.91e-4 0.05046-0.01134 0.08111-0.0021 0.164522-0.0514 0.03402-0.0189 0.09592-0.08277 0.155188-0.146268 0.05923-0.0635 0.1152754-0.126614 0.16834-0.159118 0.085531-0.05254 0.1051464-0.04422 0.1431685-0.05178 0.033638-0.0076 0.1029165-0.01134 0.1828535-0.01134z" style="fill:#808080"/>
</svg>

<svg xmlns="http://www.w3.org/2000/svg" width="16" height="16" version="1.1">
 <path style="fill:#808080" d="M 12.745941,3.5959241 A 3.2540394,3.0695998 0 0 0 10.693529,4.2861792 C 9.8882058,3.9962895 8.9710241,3.831691 7.9969114,3.831691 7.016237,3.831691 6.093167,3.9987462 5.283946,4.2920375 A 3.2540394,3.0695998 0 0 0 3.254059,3.6209446 3.2540394,3.0695998 0 0 0 0,6.6904878 3.2540394,3.0695998 0 0 0 2.499901,9.672913 c 0.19923,0.609373 0.520205,1.17959 1.020783,1.558224 1.055595,0.798387 2.889654,0.768642 4.5024233,0.768642 1.9613366,0 3.8165177,0.04271 4.8546447,-1.058797 0.283691,-0.30085 0.491274,-0.780888 0.635361,-1.2961131 A 3.2540394,3.0695998 0 0 0 16,6.6656185 3.2540394,3.0695998 0 0 0 12.745941,3.5959241 Z M 5.042682,6.8291209 a 1.4359931,1.5569188 0 0 1 0.143323,0.00756 1.4359931,1.5569188 0 0 1 1.139913,0.8514141 1.4359931,1.5569188 0 0 1 0.001,0.002 1.4359931,1.5569188 0 0 1 0.151835,0.695622 1.4359931,1.5569188 0 0 1 -1.43607,1.5570141 1.4359931,1.5569188 0 0 1 -0.860442,-0.3129448 1.4359931,1.5569188 0 0 1 -1.66e-4,0 A 1.4359931,1.5569188 0 0 1 4.07279,9.5311403 1.4359931,1.5569188 0 0 1 4.07059,9.5289903 1.4359931,1.5569188 0 0 1 3.97332,9.4220296 1.4359931,1.5569188 0 0 1 3.96812,9.4144696 1.4359931,1.5569188 0 0 1 3.8852,9.3029735 1.4359931,1.5569188 0 0 1 3.8757,9.2878555 1.4359931,1.5569188 0 0 1 3.80829,9.1759815 1.4359931,1.5569188 0 0 1 3.79578,9.1533045 1.4359931,1.5569188 0 0 1 3.74322,9.0436982 1.4359931,1.5569188 0 0 1 3.72855,9.0096822 1.4359931,1.5569188 0 0 1 3.69068,8.9061231 1.4359931,1.5569188 0 0 1 3.67632,8.8596351 1.4359931,1.5569188 0 0 1 3.64979,8.7590996 1.4359931,1.5569188 0 0 1 3.63879,8.7058086 1.4359931,1.5569188 0 0 1 3.62311,8.6101866 1.4359931,1.5569188 0 0 1 3.61581,8.5451786 1.4359931,1.5569188 0 0 1 3.60901,8.4503126 1.4359931,1.5569188 0 0 1 3.60681,8.3864386 1.4359931,1.5569188 0 0 1 5.042713,6.8295378 Z m 5.935657,0.078992 a 1.4359931,1.5569188 0 0 1 0.559113,0.1228347 1.4359931,1.5569188 0 0 1 1.66e-4,0 1.4359931,1.5569188 0 0 1 0.876627,1.4339149 1.4359931,1.5569188 0 0 1 -0.486032,1.164926 1.4359931,1.5569188 0 0 1 -0.949874,0.3919365 1.4359931,1.5569188 0 0 1 -1.4360695,-1.5568625 1.4359931,1.5569188 0 0 1 0.1628598,-0.7171275 1.4359931,1.5569188 0 0 1 0.246085,-0.3688819 1.4359931,1.5569188 0 0 1 0.00831,-0.011339 1.4359931,1.5569188 0 0 1 0.093581,-0.092976 1.4359931,1.5569188 0 0 1 0.01323,-0.011339 1.4359931,1.5569188 0 0 1 0.09558,-0.07748 1.4359931,1.5569188 0 0 1 0.02116,-0.015118 1.4359931,1.5569188 0 0 1 0.09778,-0.063874 1.4359931,1.5569188 0 0 1 0.02646,-0.015118 1.4359931,1.5569188 0 0 1 0.09645,-0.049512 1.4359931,1.5569188 0 0 1 0.03515,-0.018898 1.4359931,1.5569188 0 0 1 0.0926,-0.034016 1.4359931,1.5569188 0 0 1 0.04471,-0.015118 1.4359931,1.5569188 0 0 1 0.08893,-0.022677 1.4359931,1.5569188 0 0 1 0.05155,-0.011339 1.4359931,1.5569188 0 0 1 0.08678,-0.015118 1.4359931,1.5569188 0 0 1 0.05673,-0.00756 1.4359931,1.5569188 0 0 1 0.1183,-0.00756 z M 8.6656458,9.453398 A 0.28983341,0.51379562 0 0 1 8.95546,9.9671114 0.28983341,0.51379562 0 0 1 8.95329,10.024938 c -0.030614,0.05291 -0.056391,0.113386 -0.091918,0.159118 -0.07268,0.09335 -0.1557544,0.171969 -0.2506205,0.234709 -0.016252,0.01134 -0.037795,0.01512 -0.054387,0.02268 A 0.28983341,0.51379562 0 0 1 8.3758165,9.9660909 0.28983341,0.51379562 0 0 1 8.6656306,9.4523776 Z M 7.324178,9.472296 A 0.28983341,0.51379562 0 0 1 7.6139923,9.9861983 0.28983341,0.51379562 0 0 1 7.383403,10.488913 C 7.330753,10.462456 7.27255,10.446582 7.226553,10.413322 7.170763,10.372881 7.126883,10.31581 7.08021,10.262897 A 0.28983341,0.51379562 0 0 1 7.03433,9.9866137 0.28983341,0.51379562 0 0 1 7.324144,9.4727113 Z m 0.6697324,1.225852 c 0.079975,-0.0017 0.1618394,-0.0012 0.2164158,0.01512 0.044107,0.01134 0.068901,0.0189 0.089424,0.03402 0.020409,0.01512 0.030614,0.02646 0.056239,0.04724 0.033638,0.02646 0.064176,0.06539 0.095773,0.103937 0.031748,0.03855 0.063874,0.0771 0.090935,0.100913 0.03515,0.03024 0.06085,0.0635 0.085115,0.0858 0.024189,0.02268 0.042935,0.03402 0.071924,0.03402 0.092296,0 0.1735181,0.02268 0.2634708,-0.0076 0.038022,-0.01134 0.1169764,-0.06728 0.1791874,-0.117165 0.062211,-0.05027 0.1116095,-0.09562 0.1116095,-0.09562 a 0.04271766,0.04271766 0 1 1 0.058053,0.06236 c 0,0 -0.051401,0.04762 -0.1161448,0.09978 -0.064743,0.05216 -0.1395402,0.109228 -0.2048882,0.131905 -0.1167874,0.04006 -0.2169449,0.01134 -0.291326,0.01134 -0.054387,0 -0.097474,-0.02646 -0.1292976,-0.0548 -0.031748,-0.03024 -0.057071,-0.06085 -0.084586,-0.08504 -0.035528,-0.03024 -0.068787,-0.07257 -0.1002708,-0.11074 -0.03137,-0.03855 -0.061644,-0.07408 -0.083074,-0.09146 -0.02948,-0.02268 -0.042028,-0.0378 -0.051213,-0.04347 -0.00907,-0.0076 -0.021921,-0.01134 -0.06308,-0.02268 -0.030614,-0.0076 -0.1152378,-0.01134 -0.1922267,-0.01134 -0.076989,0.0016 -0.1552252,0.0076 -0.1678488,0.01134 -0.054312,0.01134 -0.035528,-0.0076 -0.1152756,0.04082 -0.029858,0.0189 -0.091389,0.08088 -0.150841,0.144378 -0.059452,0.0635 -0.1173544,0.128127 -0.1740094,0.161386 -0.09766,0.05745 -0.163578,0.05405 -0.1872,0.0601 -0.01928,0.0038 -0.03666,0.0038 -0.05991,0.0033 -0.02343,-0.0011 -0.05084,-0.0038 -0.08009,-0.0076 -0.05851,-0.01134 -0.123891,-0.02646 -0.177182,-0.05292 -0.0578,-0.03024 -0.116724,-0.0892 -0.166519,-0.142489 -0.04979,-0.05329 -0.08776,-0.100158 -0.08776,-0.100158 a 0.04271766,0.04271766 0 1 1 0.06624,-0.05367 c 0,0 0.03651,0.0446 0.08392,0.09524 0.04741,0.05065 0.108276,0.106583 0.143157,0.124725 0.03938,0.0189 0.09944,0.0378 0.152013,0.04535 0.02646,0.0038 0.05049,0.0076 0.06992,0.0076 0.01928,9.83e-4 0.03591,-6.42e-4 0.03553,-4.91e-4 0.05046,-0.01134 0.08111,-0.0021 0.164522,-0.0514 0.03402,-0.0189 0.09592,-0.08277 0.155188,-0.146268 0.05923,-0.0635 0.1152754,-0.126614 0.16834,-0.159118 0.085531,-0.05254 0.1051464,-0.04422 0.1431685,-0.05178 0.033638,-0.0076 0.1029165,-0.01134 0.1828535,-0.01134 z"/>
</svg>
